icon/fa/link.svg

<svg xmlns="http://www.w3.org/2000/svg" viewBox="0 0 640 512"><!--! Font Awesome Free 6.1.2 by @fontawesome - https://fontawesome.com License - https://fontawesome.com/license/free (Icons: CC BY 4.0, Fonts: SIL OFL 1.1, Code: MIT License) Copyright 2022 Fonticons, Inc.--><path d="M172.5 131.1c55.6-55.59 148-55.59 203.6 0 50 50 57.4 129.7 16.3 187.2l-1.1 1.6c-10.3 14.3-30.3 17.7-44.6 7.4-14.4-10.3-17.8-30.3-7.5-44.6l1.1-1.6c22.9-32.1 19.3-76-8.6-103.9-31.4-31.4-82.5-31.4-114 0L105.5 289.5c-31.51 30.6-31.51 82.5 0 114 27.8 27.9 71.8 31.5 103.8 8.6l1.6-2c14.4-9.4 34.4-6.1 44.6 8.3 10.3 14.4 7 34.4-7.4 44.7l-1.6 1.1c-58.4 41.1-136.3 34.5-186.29-15.4-56.469-56.5-56.469-148.1 0-204.5L172.5 131.1zm295 248.9c-56.5 56.5-148 56.5-204.5 0-50-50-56.5-128.8-15.4-186.3l1.1-1.6c9.4-14.3 29.4-17.7 44.6-7.4 14.4 9.4 17.8 29.4 7.5 44.6l-1.1 1.6c-22.9 31.2-19.3 76 8.6 103.9 31.4 31.4 82.5 31.4 114 0l112.2-112.3c31.5-31.5 31.5-83.4 0-114-27.8-27.87-71.8-31.51-103.8-8.6l-1.6 1.1c-14.4 10.3-34.4 6.1-44.6-7.42-10.3-14.38-7-34.37 7.4-44.64l1.6-1.12C451 6.731 529.8 13.25 579.8 63.24c56.5 56.46 56.5 148.06 0 204.46L467.5 380z"/></svg>

<svg xmlns="http://www.w3.org/2000/svg" viewBox="0 0 640 512" height="1em" width="1em">
<!--! Font Awesome Free 6.1.2 by @fontawesome - https://fontawesome.com License - https://fontawesome.com/license/free (Icons: CC BY 4.0, Fonts: SIL OFL 1.1, Code: MIT License) Copyright 2022 Fonticons, Inc.-->
  <path d="M172.5 131.1C228.1 75.51 320.5 75.51 376.1 131.1C426.1 181.1 433.5 260.8 392.4 318.3L391.3 319.9C381 334.2 361 337.6 346.7 327.3C332.3 317 328.9 297 339.2 282.7L340.3 281.1C363.2 249 359.6 205.1 331.7 177.2C300.3 145.8 249.2 145.8 217.7 177.2L105.5 289.5C73.99 320.1 73.99 372 105.5 403.5C133.3 431.4 177.3 435 209.3 412.1L210.9 410.1C225.3 400.7 245.3 404 255.5 418.4C265.8 432.8 262.5 452.8 248.1 463.1L246.5 464.2C188.1 505.3 110.2 498.7 60.21 448.8C3.741 392.3 3.741 300.7 60.21 244.3L172.5 131.1zM467.5 380C411 436.5 319.5 436.5 263 380C213 330 206.5 251.2 247.6 193.7L248.7 192.1C258.1 177.8 278.1 174.4 293.3 184.7C307.7 194.1 311.1 214.1 300.8 229.3L299.7 230.9C276.8 262.1 280.4 306.9 308.3 334.8C339.7 366.2 390.8 366.2 422.3 334.8L534.5 222.5C566 191 566 139.1 534.5 108.5C506.7 80.63 462.7 76.99 430.7 99.9L429.1 101C414.7 111.3 394.7 107.1 384.5 93.58C374.2 79.2 377.5 59.21 391.9 48.94L393.5 47.82C451 6.731 529.8 13.25 579.8 63.24C636.3 119.7 636.3 211.3 579.8 267.7L467.5 380z"/>
</svg>
